X:1
T:He Is Coming
T:Ira David Sankey
T:He Is Coming
T:Public Domain
T:Public Domain
C:Ira David Sankey
Z:Public Domain
%%score ( 1 2 ) ( 3 4 )
L:1/8
M:3/4
K:Ab
V:1 treble 
V:2 treble 
V:3 bass 
V:4 bass 
V:1
 [CA][Ec] | [Ae]2 [Ec][EA] [DF][DA] | [CE]2 [CA]2 [EA][EB] | [Ec]2 [Ed]2 (EA) | [GB]4 A[Ac] | %5
w: 1.~He is|com- ing, the “Man of|Sor- rows,” Now ex-|alt- ed on *|He is com-|
w: 2.~He is|com- ing, our lov- ing|Sav- ior, Bless- èd|Lamb that was *|In the glo-|
w: 3.~He is|com- ing, our Lord and|mas- ter, Our re-|deem- er and *|We shall see|
w: 4.~He shall|ga- ther His cho- sen|peo- ple, Who are|called by His *|And the ran-|
 [Ae]2 [Ec][EA] [DF][DA] | [CE]2 [CA]2 [EA][FB] | [Ec]2 [Ac]2 [EB]2 | [EA]4 ||"^Refrain" E>E | %10
w: with loud ho- san- nas,|In the clouds of|the sky. *|||
w: of God the Fa- ther,|On the earth He|shall reign. Hal-|le-|lu- jah!|
w: in all His beau- ty,|And His praise we|shall sing. *|||
w: of ev- ery na- tion|For His own He|shall claim. *|||
 [DB]2 [DB]2 E>E | [Ec]2 [Ec]2 [Ac]>[Ac] | [GB]2 [Ge]2 [F=d]2 | [Ge]4 [Ec][Ed] | %14
w: ||||
w: lu- jah! He is|a- gain; And with|joy we shall|ga- ther round|
w: ||||
w: ||||
 [Ae]2 [Ec][EA] [DF][DA] | [CE]2 [EA]2 [EA][FB] | [Ec]2 [Ac]2 [EB]2 | [EA]4 |] %18
w: ||||
w: Him, At His com- ing|to reign. * *|||
w: ||||
w: ||||
V:2
 x2 | x6 | x6 | x4 c2 | x4 A x | x6 | x6 | x6 | x4 || E>E | x4 E>E | x6 | x6 | x6 | x6 | x6 | x6 | %17
w: |||high;|ing|||||||||||||
w: |||slain;|ry|||||hal- le-|com- ing|||||||
w: |||king;|Him|||||||||||||
w: |||name;|somed|||||||||||||
 x4 |] %18
w: |
w: |
w: |
w: |
V:3
 A,A, | [A,C]2 A,[C,A,] [D,A,][F,A,] | A,2 [A,,A,]2 [C,A,][E,G,] | A,2 [G,B,]2 (A,C) | %4
 [E,E]4 [A,C][A,E] | [A,C]2 A,[C,A,] [D,A,][F,A,] | A,2 [A,,A,]2 [C,A,][D,A,] | %7
 [E,A,]2 [E,E]2 [E,D]2 | [A,,C]4 || E,>E, | [E,G,]2 [E,G,]2 E,>E, | %11
 [A,,A,]2 [A,,A,]2 [A,,E]>[A,,E] | [B,,E]2 [B,,B,]2 [B,,B,]2 | [E,B,]4 A,[A,B,] | %14
 [A,C]2 [A,,A,][C,A,] [D,A,][F,A,] | A,2 [A,C]2 [C,A,][D,A,] | (A,C) [E,E]2 [E,D]2 | [A,,C]4 |] %18
V:4
 A,A, | x2 A, x3 | A,2 x4 | A,2 x4 | x6 | x2 A, x3 | A,2 x4 | x6 | x4 || E,>E, | x4 E,>E, | x6 | %12
 x6 | x4 A, x | x6 | A,2 x4 | E,2 x4 | x4 |] %18

